X: 2141
T: Polonäs, sexdregasamlingen del 2 nr 88
B: Sexdregasamlingen del 2 nr 88
S: efter Anders Larsson
O: Sexdrega, Västergötland
R: Slängpolska
Z: 2011-11-16 av Nils L
M: 3/4
L: 1/16
K: D
d2f2 e2g2 f2a2 | d2Bc d2A2 F2D2 | d2ef g2b2 a2g2 | f2ed c2e2 c2A2 |
d2f2 e2g2 f2a2 | d2Bc d2A2 F2D2 | d2ef g2b2 a2g2 | f2gf e4 A4 ::
a2f2 d2g2 bagf | g2e2 c2e2 agfe | f2e2 f2B2 c2d2 | e4   d2cB c2BA |
a2f2 d2g2 bagf | g2e2 c2e2 a2g2 | f2e2 f2B2 c2d2 | e2dc d4 D4 :|
(:musicend:)
(:music:)
